remix/Media/notification-3-fill.svg

<svg viewBox="0 0 24 24" fill="currentColor" xmlns="http://www.w3.org/2000/svg"><path d="M20 17H22V19H2V17H4V10C4 5.58172 7.58172 2 12 2C16.4183 2 20 5.58172 20 10V17ZM9 21H15V23H9V21Z"/></svg>

<svg viewBox="0 0 24 24" xmlns="http://www.w3.org/2000/svg"><path fill="none" d="M0 0h24v24H0Z"/><path d="M20 17h2v2H2v-2h2v-7 0c0-4.42 3.58-8 8-8 4.41 0 8 3.58 8 8v7ZM9 21h6v2H9v-2Z"/></svg>
